X: 4
T: Big Scioty
R: reel
N: Named after the Scioto River in Ohio. Also spelled Sciota, Sciote, Scioty.
Z: 2009 John Chambers <jc:trillian.mit.edu>
F: http/www.glitchless.net/abc/contra.abc
M: C|
L: 1/8
K: G
(3DEF \
| "G"G2Bd  BAGB | ABBB B2dc | BABd AGEG | ABBB B2D2 |
| GFGA B2d2 | "C"e3g e2dc | "G"BAGG "D"AGEG | "G"ABBB B2 :|
|: (3DEF \
| "G"GABd [g2B2][g2B2] | "D"a3b a2ge | gfgf ddB2 | "C"e3g e2gf |
| gfgf edB2 | e3g e2dc | "G"BABG "D"AGAG | "G"ABBB B2 :|

%%sep 5 1 500

